SVG-Logos/AI, ML, DS/google-bard.svg

<?xml version="1.0" encoding="UTF-8"?>
<svg width="512px" height="177px" viewBox="0 0 512 177" version="1.1" xmlns="http://www.w3.org/2000/svg" xmlns:xlink="http://www.w3.org/1999/xlink" preserveAspectRatio="xMidYMid">
    <title>Bard</title>
    <defs>
        <radialGradient cx="78.3021802%" cy="55.5203129%" fx="78.3021802%" fy="55.5203129%" r="78.1147983%" gradientTransform="translate(0.783022,0.555203),scale(0.999475,1.000000),rotate(78.858000),translate(-0.783022,-0.555203)" id="radialGradient-1">
            <stop stop-color="#1BA1E3" offset="0%"></stop>
            <stop stop-color="#1BA1E3" offset="0.01%"></stop>
            <stop stop-color="#5489D6" offset="30.0221%"></stop>
            <stop stop-color="#9B72CB" offset="54.5524%"></stop>
            <stop stop-color="#D96570" offset="82.5372%"></stop>
            <stop stop-color="#F49C46" offset="100%"></stop>
        </radialGradient>
        <radialGradient cx="-3.4086494%" cy="-54.2187761%" fx="-3.4086494%" fy="-54.2187761%" r="169.363094%" gradientTransform="translate(-0.034086,-0.542188),scale(0.999462,1.000000),rotate(78.858000),translate(0.034086,0.542188)" id="radialGradient-2">
            <stop stop-color="#1BA1E3" offset="0%"></stop>
            <stop stop-color="#1BA1E3" offset="0.01%"></stop>
            <stop stop-color="#5489D6" offset="30.0221%"></stop>
            <stop stop-color="#9B72CB" offset="54.5524%"></stop>
            <stop stop-color="#D96570" offset="82.5372%"></stop>
            <stop stop-color="#F49C46" offset="100%"></stop>
        </radialGradient>
    </defs>
    <g>
        <path d="M231.514481,140.971542 L231.514481,34.4047016 L270.0631,34.4047016 C278.497184,34.4047016 285.740508,37.1830031 291.79321,42.7395383 C297.846114,48.1968943 300.872228,55.0929569 300.872228,63.4277935 C300.872228,73.9455861 296.060078,81.3375444 286.435101,85.6044124 L286.435101,86.1997579 C291.892457,87.9857943 296.258301,91.1113581 299.532701,95.5764491 C302.807101,99.9420904 304.444301,104.95314 304.444301,110.608922 C304.444301,119.340882 301.269351,126.5838 294.918774,132.339032 C288.766893,138.094264 281.176238,140.971542 272.146809,140.971542 L231.514481,140.971542 Z M245.207427,47.5023021 L245.207427,80.0974668 L270.0631,80.0974668 C274.925111,80.0974668 278.993282,78.4602667 282.267682,75.1858666 C285.542082,71.8122197 287.179283,67.9921314 287.179283,63.7254663 C287.179283,59.5580479 285.591672,55.7875491 282.416519,52.4139022 C279.241365,49.1395021 275.321963,47.5023021 270.658446,47.5023021 L245.207427,47.5023021 Z M245.207427,92.8973945 L245.207427,127.873941 L272.742155,127.873941 C277.703345,127.873941 281.92042,126.137291 285.393246,122.664668 C288.766893,119.192045 290.453683,115.074013 290.453683,110.31125 C290.453683,105.647936 288.717236,101.57929 285.24441,98.1066674 C281.771584,94.6340443 277.405672,92.8973945 272.146809,92.8973945 L245.207427,92.8973945 Z M327.476729,118.646086 C327.476729,122.218159 328.965093,125.194886 331.94182,127.576268 C335.017998,129.95765 338.59007,131.148341 342.658039,131.148341 C348.413271,131.148341 353.523094,129.015245 357.988185,124.748377 C362.552726,120.481509 364.834658,115.471136 364.834658,109.715904 C360.56779,106.342054 354.614335,104.655468 346.974294,104.655468 C341.417961,104.655468 336.753971,105.994995 332.983675,108.67405 C329.312152,111.353104 327.476729,114.676891 327.476729,118.646086 L327.476729,118.646086 Z M345.188257,65.660339 C355.30913,65.660339 363.296908,68.3889833 369.150913,73.8463393 C375.004918,79.2044486 377.932258,86.5968804 377.932258,96.0229582 L377.932258,140.971542 L364.834658,140.971542 L364.834658,130.850669 L364.239312,130.850669 C358.58353,139.185505 351.042262,143.352923 341.616184,143.352923 C333.57902,143.352923 326.831997,140.971542 321.374438,136.208778 C316.016329,131.446014 313.337274,125.492559 313.337274,118.348414 C313.337274,110.807145 316.165165,104.804304 321.820947,100.339213 C327.576179,95.8741219 335.216221,93.6415763 344.741748,93.6415763 C352.878362,93.6415763 359.575998,95.12994 364.834658,98.1066674 L364.834658,94.9811037 C364.834658,90.2183399 362.949172,86.1997579 359.178876,82.9253578 C355.40858,79.5517109 350.992876,77.8649213 345.932439,77.8649213 C338.292398,77.8649213 332.239493,81.0899348 327.774402,87.5392852 L315.718656,79.9486304 C322.366906,70.4231028 332.190107,65.660339 345.188257,65.660339 Z M407.069007,140.971542 L393.376061,140.971542 L393.376061,68.0417209 L406.473662,68.0417209 L406.473662,79.9486304 L407.069007,79.9486304 C408.458598,76.0788848 411.286489,72.8044847 415.55268,70.1254301 C419.918998,67.3471287 424.185189,65.9580118 428.352608,65.9580118 C432.321803,65.9580118 435.695653,66.5533573 438.473481,67.7440482 L434.306063,80.990485 C432.619476,80.2956898 429.940421,79.9486304 426.268899,79.9486304 C421.109689,79.9486304 416.594535,82.0323396 412.724789,86.1997579 C408.954493,90.3671762 407.069007,95.2293898 407.069007,100.785722 L407.069007,140.971542 Z M475.683926,130.850669 C482.430949,130.850669 487.937895,128.4199 492.204763,123.557686 C496.669854,118.695473 498.9024,112.345572 498.9024,104.506631 C498.9024,96.8665898 496.669854,90.5653992 492.204763,85.6044124 C487.839122,80.6434257 482.332176,78.162594 475.683926,78.162594 C469.135126,78.162594 463.62818,80.6434257 459.163089,85.6044124 C454.697998,90.5653992 452.465453,96.8665898 452.465453,104.506631 C452.465453,112.246122 454.697998,118.546637 459.163089,123.40885 C463.62818,128.369837 469.135126,130.850669 475.683926,130.850669 L475.683926,130.850669 Z M473.451381,143.352923 C463.925853,143.352923 455.739853,139.582628 448.89338,132.041359 C442.146356,124.401318 438.772507,115.22285 438.772507,104.506631 C438.772507,93.7904127 442.146356,84.6119445 448.89338,76.9719031 C455.739853,69.4308378 463.925853,65.660339 473.451381,65.660339 C478.80949,65.660339 483.671703,66.8014404 488.037345,69.0835755 C492.502436,71.3657106 495.925672,74.3920952 498.307054,78.162594 L498.9024,78.162594 L498.307054,68.0417209 L498.307054,34.4047016 L512,34.4047016 L512,140.971542 L498.9024,140.971542 L498.9024,130.850669 L498.307054,130.850669 C495.925672,134.620964 492.502436,137.647755 488.037345,139.929687 C483.671703,142.211619 478.80949,143.352923 473.451381,143.352923 Z" fill="#5F6368"></path>
        <g transform="translate(-0.000000, -0.000000)">
            <path d="M83.6830553,118.446925 L76.6424946,134.572529 C73.9360197,140.771013 65.35838,140.771013 62.6520685,134.572529 L55.6113444,118.446925 C49.3456964,104.09617 38.067955,92.6731526 24.0003971,86.4287485 L4.6210267,77.8264332 C-1.54034795,75.0915241 -1.54033651,66.1282256 4.6210267,63.3933165 L23.3951089,55.059655 C37.824467,48.6546143 49.3045159,36.8081895 55.4631272,21.9680067 L62.5950367,4.78303485 C65.2415385,-1.59433487 74.0528612,-1.59434958 76.6995264,4.78301851 L83.8314359,21.9681701 C89.9900472,36.8081895 101.469933,48.6546143 115.899291,55.059655 L134.67352,63.3933165 C140.834909,66.1282256 140.834909,75.0915241 134.67352,77.8264332 L115.294003,86.4287485 C101.226608,92.6731526 89.9488667,104.09617 83.6830553,118.446925 Z" fill="url(#radialGradient-1)"></path>
            <path d="M149.1135,169.294402 L147.13324,173.83243 C145.684078,177.154651 141.083954,177.154651 139.634792,173.83243 L137.654695,169.294402 C134.1251,161.202921 127.767777,154.760622 119.834971,151.236256 L113.734536,148.52586 C110.436009,147.060356 110.436009,142.265277 113.734536,140.799774 L119.493925,138.240863 C127.630672,134.625802 134.101895,127.94508 137.570863,119.578736 L139.604233,114.674823 C141.021366,111.257004 145.746666,111.257004 147.163799,114.674823 L149.197169,119.578736 C152.666137,127.94508 159.137524,134.625802 167.274597,138.240863 L173.033333,140.799774 C176.332676,142.265277 176.332676,147.060356 173.033333,148.52586 L166.933061,151.236256 C159.000419,154.760622 152.642932,161.202921 149.1135,169.294402 Z" fill="url(#radialGradient-2)"></path>
        </g>
    </g>
</svg>

<svg xmlns="http://www.w3.org/2000/svg" preserveAspectRatio="xMidYMid" viewBox="0 0 512 177"><defs><radialGradient id="a" cx="78.302%" cy="55.52%" r="78.115%" fx="78.302%" fy="55.52%" gradientTransform="scale(.99947 1) rotate(78.858 .783 .555)"><stop offset="0%" stop-color="#1BA1E3"/><stop offset=".01%" stop-color="#1BA1E3"/><stop offset="30.022%" stop-color="#5489D6"/><stop offset="54.552%" stop-color="#9B72CB"/><stop offset="82.537%" stop-color="#D96570"/><stop offset="100%" stop-color="#F49C46"/></radialGradient><radialGradient id="b" cx="-3.409%" cy="-54.219%" r="169.363%" fx="-3.409%" fy="-54.219%" gradientTransform="scale(.99946 1) rotate(78.858 -.034 -.542)"><stop offset="0%" stop-color="#1BA1E3"/><stop offset=".01%" stop-color="#1BA1E3"/><stop offset="30.022%" stop-color="#5489D6"/><stop offset="54.552%" stop-color="#9B72CB"/><stop offset="82.537%" stop-color="#D96570"/><stop offset="100%" stop-color="#F49C46"/></radialGradient></defs><path fill="#5F6368" d="M231.514 140.972V34.405h38.55c8.433 0 15.677 2.778 21.73 8.335 6.052 5.457 9.078 12.353 9.078 20.688 0 10.518-4.812 17.91-14.437 22.176v.596c5.457 1.786 9.823 4.911 13.098 9.376 3.274 4.366 4.911 9.377 4.911 15.033 0 8.732-3.175 15.975-9.525 21.73-6.152 5.755-13.743 8.633-22.772 8.633h-40.633Zm13.693-93.47v32.595h24.856c4.862 0 8.93-1.637 12.205-4.911 3.274-3.374 4.911-7.194 4.911-11.46 0-4.168-1.587-7.938-4.762-11.312-3.176-3.274-7.095-4.912-11.759-4.912h-25.45Zm0 45.395v34.977h27.535c4.961 0 9.178-1.737 12.651-5.21 3.374-3.472 5.06-7.59 5.06-12.353 0-4.663-1.736-8.732-5.209-12.204-3.472-3.473-7.838-5.21-13.097-5.21h-26.94Zm82.27 25.75c0 3.571 1.488 6.548 4.465 8.93 3.076 2.38 6.648 3.571 10.716 3.571 5.755 0 10.865-2.133 15.33-6.4 4.565-4.266 6.847-9.277 6.847-15.032-4.267-3.374-10.22-5.06-17.86-5.06-5.557 0-10.221 1.339-13.991 4.018-3.672 2.68-5.507 6.003-5.507 9.972Zm17.711-52.987c10.121 0 18.109 2.729 23.963 8.186 5.854 5.358 8.781 12.75 8.781 22.177v44.949h-13.097V130.85h-.596c-5.655 8.335-13.197 12.502-22.623 12.502-8.037 0-14.784-2.381-20.242-7.144-5.358-4.763-8.037-10.716-8.037-17.86 0-7.542 2.828-13.545 8.484-18.01 5.755-4.465 13.395-6.697 22.92-6.697 8.137 0 14.835 1.488 20.094 4.465V94.98c0-4.763-1.886-8.781-5.656-12.056-3.77-3.373-8.186-5.06-13.247-5.06-7.64 0-13.693 3.225-18.158 9.674l-12.055-7.59c6.648-9.526 16.471-14.289 29.47-14.289Zm61.881 75.312h-13.693v-72.93h13.098v11.907h.595c1.39-3.87 4.217-7.145 8.484-9.824 4.366-2.778 8.632-4.167 12.8-4.167 3.969 0 7.343.595 10.12 1.786l-4.167 13.246c-1.687-.694-4.366-1.041-8.037-1.041-5.16 0-9.674 2.083-13.544 6.25-3.77 4.168-5.656 9.03-5.656 14.587v40.186Zm68.615-10.121c6.747 0 12.254-2.431 16.52-7.293 4.466-4.863 6.698-11.212 6.698-19.051 0-7.64-2.232-13.942-6.697-18.903-4.366-4.96-9.873-7.441-16.521-7.441-6.549 0-12.056 2.48-16.52 7.441-4.466 4.961-6.699 11.263-6.699 18.903 0 7.74 2.233 14.04 6.698 18.902 4.465 4.96 9.972 7.442 16.52 7.442Zm-2.233 12.502c-9.525 0-17.711-3.77-24.558-11.312-6.747-7.64-10.12-16.818-10.12-27.534 0-10.717 3.373-19.895 10.12-27.535 6.847-7.541 15.033-11.312 24.558-11.312 5.358 0 10.22 1.141 14.586 3.424 4.465 2.282 7.889 5.308 10.27 9.079h.595l-.595-10.121V34.405H512v106.567h-13.098V130.85h-.595c-2.381 3.77-5.805 6.797-10.27 9.079-4.365 2.282-9.228 3.423-14.586 3.423Z"/><path fill="url(#a)" d="m83.683 118.447-7.04 16.126c-2.707 6.198-11.285 6.198-13.99 0l-7.042-16.126c-6.265-14.35-17.543-25.774-31.61-32.018L4.62 77.826c-6.161-2.734-6.161-11.698 0-14.433l18.774-8.333c14.43-6.405 25.91-18.252 32.068-33.092l7.132-17.185c2.647-6.377 11.458-6.377 14.105 0l7.131 17.185C89.99 36.808 101.47 48.655 115.9 55.06l18.775 8.333c6.16 2.735 6.16 11.699 0 14.433l-19.38 8.603c-14.067 6.244-25.345 17.667-31.61 32.018Z"/><path fill="url(#b)" d="m149.113 169.294-1.98 4.538c-1.449 3.323-6.049 3.323-7.498 0l-1.98-4.538c-3.53-8.091-9.887-14.533-17.82-18.058l-6.1-2.71c-3.299-1.466-3.299-6.26 0-7.726l5.759-2.56c8.137-3.614 14.608-10.295 18.077-18.661l2.033-4.904c1.417-3.418 6.143-3.418 7.56 0l2.033 4.904c3.47 8.366 9.94 15.047 18.078 18.662l5.758 2.559c3.3 1.465 3.3 6.26 0 7.726l-6.1 2.71c-7.933 3.525-14.29 9.967-17.82 18.058Z"/></svg>
